X: 11
T: The Crush Collision March
C: Scott Joplin
%%abc-version 2.0
%%abcx-abcm2ps-target-version 5.9.1 (29 Sep 2008)
%%abc-creator hum2abc beta
%%abcx-conversion-date 2021/07/20 09:00:57
%%abc-copyright 2021 Craig Stuart Sapp
%%abc-edited-by Craig Stuart Sapp
%%abc-edited-by Craig Stuart Sapp
%%abcx-initial-encoding-date 2004/11/28
%%humdrum-veritas 408331812
%%humdrum-veritas-data 1573818461
%%removed 0's from note length
%%linebreak <none>
%%barnumbers 0
L: 1/4
M: 4/4
N: Derived from crush.krn
Q: "Tempo di Marcia." 1/4=132
%%staves {1 2}
V: 1 clef=treble
V: 2 clef=bass
K: F
[V:1] [fF] [I:setbarnb 1]| 
[V:2] [F,F,,] | 
[V:1] [e/E/][d/D/][^c/^C/][B/B,/][AA,][fF] | 
[V:2] [E,/E,,/][D,/D,,/][^C,/^C,,/][B,,/B,,,/][A,,A,,,][F,F,,] | 
[V:1] [e/E/][d/D/][^c/^C/][B/B,/][AA,][^G^G,] | 
[V:2] [E,/E,,/][D,/D,,/][^C,/^C,,/][B,,/B,,,/][A,,A,,,][^G,,^G,,,] | 
[V:1] [AA,][BB,][AA,][ae^cA] | 
[V:2] [A,,A,,,][B,,B,,,][A,,A,,,][A,A,,] | 
[V:1] [d'/a/f/d/][^c'/^c/][d'/a/f/d/][c'/c/][d'afd]F ]|:  
[V:2] [D,/D,,/][E,/E,,/][F,/F,,/][E,/E,,/][D,D,,]z ]|:  
[V:1] A2A2 & z[FDA,]z[GE^CA,] | 
[V:2] [D,D,,]z[E,E,,]z | 
[V:1] A2A2 & z[FDA,]z[^FDC] | 
[V:2] [F,F,,]z[^F,^F,,][A,A,,] | 
[V:1] G>ABd | 
[V:2] [B,B,,][DB,G,][G,G,,][DB,G,] | 
[V:1] A/d/^c/d/A2 | 
[V:2] [D,D,,][FDA,][D,D,,][FDA,] | 
[V:1] G>ABd | 
[V:2] [B,B,,][DB,G,][G,G,,][DB,G,] | 
[V:1] A/d/^c/d/[f2d2A2] | 
[V:2] [D,D,,][FDA,][D,D,,][FDA,] | 
[V:1] [e2=B2^G2E2]f/e/^d/e/ | 
[V:2] [E,E,,][D=B,^G,E,][E,E,,][DB,G,E,] | 
[V:1] [ae^cA][aecA]A,/^G,/A, | 
[V:2] [A,A,,][A,A,,]A,,/^G,,/A,, | 
[V:1] A2A2 & z[FDA,]z[GE^CA,] | 
[V:2] [D,D,,]z[E,E,,]z | 
[V:1] A2A2 & z[FDA,]z[^FDC] | 
[V:2] [F,F,,]z[^F,^F,,][A,A,,] | 
[V:1] G>ABd | 
[V:2] [B,B,,][DB,G,][G,G,,][DB,G,] | 
[V:1] A/d/^c/d/A2 | 
[V:2] [D,D,,][FDA,][D,D,,][FDA,] | 
[V:1] [dA]>[eA][fA][dA] | 
[V:2] [F,F,,][FDA,][D,D,,][FDA,] | 
[V:1] [bdB][^gd^G][ae^cA][e=B^GE] | 
[V:2] [G,G,,][B,B,,][A,A,,][E,E,,] | 
[V:1] [a2e2^c2A2]b/a/^g/a/ |[1 
[V:2] [A,,A,,,][GE^CA,][^C,^C,,][GECA,] | 
[V:1] [d'afd]zz2 :|][2 
[V:2] [D,D,,][A,A,,][F,F,,][E,E,,] :|]  
[V:1] [d'afd][fA][eA][dA] ]|: 
[V:2] [D,D,,]zz2 ]|:  
[V:1] e4- & z[BG][BG][BG] | 
[V:2] [C,C,,][D,D,,][E,E,,][F,F,,] | 
[V:1] exx2 & [BG][cB][dB][eB] | 
[V:2] [G,G,,][ECB,][C,C,,][ECB,] | 
[V:1] a3f & z[cA][cA][dF] | 
[V:2] [F,F,,][G,G,,][A,A,,][B,B,,] | 
[V:1] [fcF][c'c][c'3/c3/][a/A/] | 
[V:2] [A,A,,][FCA,][F,F,,][FCA,] | 
[V:1] [b4-B4] & z[ec][ec][ec] | 
[V:2] [G,G,,][CC,][B,B,,][G,G,,] | 
[V:1] bxx2 & [ec][c'c][c'3/c3/][^g/^G/] | 
[V:2] [E,E,,][ECB,][C,C,,][ECB,] | 
[V:1] [a4-A4] & z[fc][fc][fc] | 
[V:2] [F,F,,][CC,][A,A,,][G,G,,] | 
[V:1] [afc][=fA][eA][dA] | 
[V:2] [F,F,,][FCA,][FCA,][FCA,] | 
[V:1] ^c4- & x[GE][GE][GE] | 
[V:2] [A,,A,,,][=B,,=B,,,][^C,^C,,][D,D,,] | 
[V:1] [cGE][aA][eE][gG] | 
[V:2] [E,E,,][^CA,G,]^C,[CA,] | 
[V:1] [f4F4] & z[dA][dA][dA] | 
[V:2] D,[DA,][DA,][DA,] | 
[V:1] [a^d][c'd][=bd][ad] | 
[V:2] [^F,^F,,][^DCA,][DCA,][DCA,] | 
[V:1] [g4-G4] & z[ec][ec][ec] | 
[V:2] [G,G,,][CC,][=B,=B,,][A,A,,] | 
[V:1] [gd=B][gf][af][=bf] |[1 
[V:2] [G,G,,][FD=B,G,][G,G,,][FDB,G,] | 
[V:1] [c'2g2e2]z[gfd] | 
[V:2] [CC,][EE,][DD,][=B,=B,,] | 
[V:1] [c'gec][fA][eA][dA] :|][2 
[V:2] [CC,]zz2 :|]  
[V:1] [c'2g2e2]z[gfd] | 
[V:2] [CC,][EE,][DD,][=B,=B,,] | 
[V:1] [c'gec]gec ]|: 
[V:2] [CC,]zz2 ]|:  
[V:1] [d3B3]e/g/ | 
[V:2] [G,G,,][ECB,][C,C,,][ECB,] | 
[V:1] [dB][_dB][cB]f/e/ | 
[V:2] [E,E,,][ECB,][C,C,,][ECB,] | 
[V:1] d3f/a/ | 
[V:2] [F,F,,][FCA,][C,C,,][FCA,] | 
[V:1] [dA][_dA][cA]f/a/ | 
[V:2] [F,F,,][FCA,][A,A,,][FCA,] | 
[V:1] !arpeggio![d'/b/g/e/]e/g/b/[d'bge][d'bge] | 
[V:2] [G,G,,][ECB,][C,C,,][ECB,] | 
[V:1] [d'/b/g/e/]c'/b/g/ e/d/_d/c/ | 
[V:2] [E,E,,][ECB,][C,C,,][ECB,] | 
[V:1] !arpeggio![c'/a/f/c/]c/f/a/[c'afc][c'afc] | 
[V:2] [A,A,,][FCA,][F,F,,][FCA,] | 
[V:1] c'/a/f/c/ a/f/c/A/ | 
[V:2] [A,A,,][FCA,][F,F,,][FCA,] | 
[V:1] [d3B3]e/g/ | 
[V:2] [G,G,,][ECB,][C,C,,][ECB,] | 
[V:1] [dB][_dB][cB]f/e/ | 
[V:2] [E,E,,][ECB,][C,C,,][ECB,] | 
[V:1] [d3A3]f/a/ | 
[V:2] [F,F,,][FCA,][C,C,,][FCA,] | 
[V:1] [dA][dA][fA][aA] | 
[V:2] [F,F,,][FCA,][A,A,,][FCA,][K:clef=treble] | 
[V:1] !arpeggio![d'/a/^f/d/]d/f/a/ !arpeggio![d'/g/d/]d/g/b/ | 
[V:2] [cA^FD][cAFD][BG][BG] | 
[V:1] !arpeggio![a/e/^c/A/]A/c/e/ !arpeggio![a/d/A/]A/d/=f/ | 
[V:2] [GE^CA,][GECA,][=FD][FD] | 
[V:1] d/f/e/d/ d/c/f/a/ |[1 
[V:2] [BFDB,][^GFD=B,][AFC][AFC][K:clef=bass] | 
[V:1] [g2B2][fA]c :|][2 
[V:2] [C,/C,,/][^C,/^C,,/][D,/D,,/][E,/E,,/][F,F,,]z :|]  
[V:1] [g2B2][fA]F || 
[V:2] [C,/C,,/][^C,/^C,,/][D,/D,,/][E,/E,,/][F,F,,]z ||  
[V:1]  [K:Bb] d2c3/d/ | 
[V:2]  [K:Bb] B,,[DB,F,]B,,[DB,F,] | 
[V:1] e2[a2e2A2] | 
[V:2] C,[EA,F,]F,,[EA,F,] | 
[V:1] e2d3/e/ | 
[V:2] C,[EA,F,]F,,[EA,F,] | 
[V:1] f2!arpeggio![b2f2d2B2] | 
[V:2] B,,[DB,F,]D,[DB,F,] | 
[V:1] [d'2d2][d'3/d3/][=b/=B/] | 
[V:2] =B,,[FD=B,G,]G,,[FDB,G,] | 
[V:1] [c'2e2c2][g2e2G2] | 
[V:2] C,[ECG,]E,[ECG,] | 
[V:1] [c'2e2c2][c'3/e3/c3/][a/A/] | 
[V:2] A,,[ECA,F,]F,,[ECA,F,] | 
[V:1] !arpeggio![b2f2d2B2]!arpeggio![f2d2B2F2] | 
[V:2] B,,[DB,F,]D,[DB,F,] | 
[V:1] d2c3/d/ | 
[V:2] B,,[DB,F,]B,,[DB,F,] | 
[V:1] e2[a2e2A2] | 
[V:2] C,[EA,F,]F,,[EA,F,] | 
[V:1] e2d3/e/ | 
[V:2] C,[EA,F,]F,,[EA,F,] | 
[V:1] f2!arpeggio![b2f2d2B2] | 
[V:2] B,,[DB,F,]D,[DB,F,] | 
[V:1] [b2B2][g3/G3/][b/B/] | 
[V:2] E,[EB,G,]=E,[^CB,G,] | 
[V:1] [d'2d2][f'3/f3/][d'/d/] | 
[V:2] F,[DB,]D,[DB,F,] | 
[V:1] [c'2=e2c2][c'2_e2c2] |[1 
[V:2] C,[=ECB,]F,,[_ECA,F,] | 
[V:1] [bfdB]>F G/A/B/c/ :|][2 
[V:2] B,,[DB,F,]F,,[DB,F,] :|]  
[V:1] [b3f3d3B3]z ]|: 
[V:2] [B,B,,][F,F,,][B,,B,,,][D,D,,] ]|:  
[V:1] z[g'd'bg][^f'd'c'^f][d'd] | 
[V:2] [G,G,,][B,B,,][A,A,,]z | 
[V:1] [g'g][b'd'b][a'c'a][d'a^fd] | 
[V:2] z[G,G,,][^F,^F,,][D,D,,] | 
[V:1] [g'2d'2b2g2][a'2=e'2^c'2a2] | 
[V:2] [G,2G,,2][A,2A,,2] | 
[V:1] [d''a'^f'd'][d''a'f'd']z2 | 
[V:2] [D,D,,][D,D,,]z[C,C,,] | 
[V:1] z[f'c'af][=e'c'b=e][c'c] | 
[V:2] [F,F,,][A,A,,][G,G,,]z | 
[V:1] [f'f][a'c'a][g'bg][=e'bg=e] | 
[V:2] z[F,F,,][=E,=E,,][C,C,,] | 
[V:1] [=f'2c'2a2=f2][=e'2b2g2=e2] | 
[V:2] [F,2F,,2][C,2C,,2] | 
[V:1] [f'c'af][f'c'af]z[A^FC] | 
[V:2] [F,F,,][F,F,,]z_E,, | 
[V:1] [G=EC][G=F=B,][GEC][GFB,] | 
[V:2] =E,,/_E,,/D,,/_D,,/ C,,/D,,/=D,,/E,,/ | 
[V:1] [G=EC][GF=B,][GEC]z | 
[V:2] =E,,/_E,,/D,,/_D,,/C,,z[K:clef=treble] | 
[V:1] {/=B}c2{/B}c2 | 
[V:2] {/A}B2{/A}B2 | 
[V:1] {/=B}c{/B}cz[c_B=E] | 
[V:2] {/A}B{/A}Bz[K:clef=bass]C,, | 
[V:1] [cAF][cB=E][cAF][cBE] | 
[V:2] A,,,/_A,,,/G,,,/_G,,,/ F,,,/G,,,/=G,,,/A,,,/ | 
[V:1] [cAF][cB=E][cAF]z | 
[V:2] A,,,/_A,,,/G,,,/_G,,,/F,,,z[K:clef=treble] | 
[V:1] {/=e}.f{/e}.f{/e}.f{/e}.f | 
[V:2] {/d}.e{/d}.e{/d}.e{/d}.e | 
[V:1] {/=e}.fz!fermata![F,2E,2C,2A,,2] | 
[V:2] {/d}ez[K:clef=bass][F,,2F,,,2] | 
[V:1] [K:clef=treble][d2D2][c3/C3/][d/D/] | 
[V:2] [K:clef=bass]B,,[B,F,]B,,[B,F,] | 
[V:1] [_e2_E2][a2e2A2] | 
[V:2] C,[A,F,]F,,[A,F,] | 
[V:1] [e2E2][d3/D3/][e/E/] | 
[V:2] C,[A,F,]F,,[A,F,] | 
[V:1] !arpeggio![f2d2B2F2]!arpeggio![b2f2d2B2] | 
[V:2] B,,[DB,F,]D,[DB,F,] | 
[V:1] [d'2d2][d'3/d3/][=b/=B/] | 
[V:2] =B,,[FD=B,G,]G,,[FDB,G,] | 
[V:1] [c'2e2c2][g2e2G2] | 
[V:2] C,[ECG,]E,[ECG,] | 
[V:1] [c'2e2c2][c'3/e3/c3/][a/A/] | 
[V:2] A,,[EA,F,]F,,[EA,F,] | 
[V:1] !arpeggio![b2f2d2B2]!arpeggio![f2d2B2F2] | 
[V:2] B,,[DB,F,]D,[DB,F,] | 
[V:1] [d2D2][c3/C3/][d/D/] | 
[V:2] B,,[B,F,]B,,[B,F,] | 
[V:1] [e2E2][a2e2A2] | 
[V:2] C,[A,F,]F,,[A,F,] | 
[V:1] [e2E2][d3/D3/][e/E/] | 
[V:2] C,[A,F,]F,,[A,F,] | 
[V:1] !arpeggio![f2d2B2F2]!arpeggio![b2f2d2B2] | 
[V:2] B,,[DB,F,]D,[DB,F,] | 
[V:1] [b2B2][g3/G3/][b/B/] | 
[V:2] E,[EB,G,]=E,[^CB,G,] | 
[V:1] [d'2d2][f'3/f3/][d'/d/] | 
[V:2] F,[DB,]D,[DB,F,] | 
[V:1] [c'2=e2c2][c'2_e2c2] |[1 
[V:2] C,[=ECB,]F,,[_EA,F,] | 
[V:1] [b3f3d3B3]z :|][2 
[V:2] [B,B,,][F,F,,][B,,B,,,][D,D,,] :|]  
[V:1] [b2f2d2B2]z |]  
[V:2] [B,,2B,,,2]z |]  


